-----BEGIN PGP PUBLIC KEY BLOCK-----

mQINBGoPzDgBEAC8+ZCghjHQOuuDyZ3GD3i9IkU1YA6xdA2QG/jnAjTVJxpG1qLW
LaIgQ75iVibYJJ9G89Nx5oICd8F3IHN/yxtF7a6AJi5gWGH0MV4Z2b8x7cR6ozfU
rRFhK+ugUOWE5L4SWIj5ryhh42OLCqOK9pcrQuzxAycij+c2KkyZUg4tT/nl3LYX
jQkPMk3nyB7Hcnffa0BETdwql/XvInTWstxdpBwetIfLEuq2v010s+YPIgy78KXm
Vx5j5+SSQnX0+oxrvZJoerhwto26hmLkoLPnjpgKtiLMoYfiUMi8mat1telG2H4k
mXPVMnYzVuyvKvvQwJMPaei8Xhhvgtth/5u8Q8ib7u26eWyiUjEdBXQwCv7SAIOS
hZ6rlCwwRXOAW7nH6ImxPHrMPnCmYpAseSZsqGBdPdc/bNE2sZ5R8jEzCtsZ11n6
5p1bu9nYld6MCdDEkR+Q9llOQHa5j79b0Zbk40W7beBvIdwnEbQii6fpZwZA4RUd
Dqj47QGPZr0rm4NfEnB9cVQZtQsgS2DCmeaq3j38VaYcxcyFCEIzlCWn161BGX8W
rAiu45PEwr2BFWPrZUeBScVB8IE119SM3+zK4yIM/G+0ZAsNJ2JWUvJBau4ZfGZc
4ylTi0Q5myz7WLc6NDH4er0gcljAfue2N1dCtAsPGSwvcC4yQJva734wTQARAQAB
tCRCbGFuY29CQU0gPGJsYW5jb2JhbUBwcm90b25tYWlsLmNvbT6JAk8EEwEKADkW
IQS8rEZmOCAWIKcFXGZ6pnlYHK1TzgUCag/MOAMbLwQFCwkIBwIGFQoJCAsCBBYC
AwECHgECF4AACgkQeqZ5WBytU84/MQ/+OMpUZ+hqWB9ddwSzQA9x8IIrmDQvzSUB
grA9eulLzViVBKL5gW7uM74f47JamgCYmT83g9cy+rUBuk8/W1yV3L1Jd3X5aXPG
0RSLScEmIW7Kx5uYYzrhYDtfWI5J4DJgPwwCfuDoD/IbJ1iUwX9nn06y8PoQoOZT
mxk7zL8siBIkgzoWfrdjPK93UGNCXVxx9SYa+LfE6VhZe8OomgtYVNKiYXzn854B
Ozs6I/15seIhYOD7EBpwNhihA2VaY/1fSSuySXz5mcdymFxw6Pf4ltlTzJxDmiKx
ZpuIrA83eynNcyI5Gzv/c/lv15SjgUdmurjvaSTJ07DRWm1DDzIGBmk2GwbqwmOS
Am0mEC6dN64wqsltjzHrF/DiKsaN4FcQWUQ6tWbaDqDXtIH0uLX24dgxa2EFUOqj
Z1Gfz5WIhKY7n6H/eqDj8DaLVLxi2qW8Jwa4pZyG4zki23RVTlGitpOtWXMxPMLO
7wJM+irRVnk3f+UqLgb19U64rh+hqd66LWSPsJjsknd+oXZtN0Z225pSl/zELcT5
cVNbMG06uSkfpWZ49nP/GPe3jw9G0JuNrUJmgwRFbjot0WGATgqCpgYYCjJj1Cgo
cT5BSPh3lTvkLVJODmcefeQSxhyfhYds3X2+uofPZvGOWCZpYHOKvGbhtczbHdXR
GuUQUVJ9LhO5Ag0Eag/MOAEQAKEsz3FzokU5ztPuworku3i5y7BI6goqeNhpsyFf
9SAeGn2bmGFqEOZ4Qk5mMuXIbHRop3hTPG/uymsVc8072rN9aSQe2pAVRf2//juQ
/G8krcvLCYyZgQ8tyJDZ3oACTB36jXK6RRSJN2cACFL9rjbMqz9Z+ZC20Xr+lhPO
nlnx0okbscgVOQ4e2PMD4aXvXnGRnqyEbKu1rmABl5SNe+0XrqYtjy2Lm4rX33/f
GGr4IAJttmjWBSFAZ3EJsL4h6FYgBE2JocqNvRHdiOkpQNCz8zUy6r7FHbXG50la
XtaeXgdMYWmNZ3uzQomEi7eE6bpdN31PhA1X+er7kYQEyEeLODqQPZrdQIs9ZVgj
n5W1RJ5+4D/WXLd5TXONwwz5qSiS5wBlE1O7Z3dGcNxH9Y/ZbbHyBo75IsQh+4HX
37w23Q32uODT04KwcSoxab2TxfXbSWth98Tv1JImYH8njKCt/X4xUwvzv5yHJtJ+
x+0gWtVQ0FRNn4QQFFDJ/PTMtJv8c+rSIwgOqmO9/vzXBADufkaWu9KeDoeykTqq
ONOVHvso+NGKWbrKRPB34siel2zSe8bMIFzYAXzzCoqEyCu1J4jerV5xt2J8OBAe
LcATu/HC6exRNDsjKc2UXbcy6LuK+J7TDtg96kVJgsAwhwtiVxlBZH2Pw5H3Cmmd
RgHFABEBAAGJBGwEGAEKACAWIQS8rEZmOCAWIKcFXGZ6pnlYHK1TzgUCag/MOAIb
LgJACRB6pnlYHK1TzsF0IAQZAQoAHRYhBE6NiVGCt9ewzJ0ic3Y4Y8xO2D92BQJq
D8w4AAoJEHY4Y8xO2D92cZcP/1XcuD1nyu0aVoY3SXOJZe2BYD8yz+WdBe4/USwV
4N0jrOzM2vCI08oJMlBn50tns7nNWyeZ1ta7uAlQxrT70pQQ233vpaaSD+DCWnTt
jIukfbR1gFOAq2tzLjPXHW8Y6CeSi6XOP0HNeqqOAWhPUyayOTyYJLU+ULfbmVnZ
wNs+149HM4Y05I8qeH41LXL/aU7ZchNtJBOGalfBOOpq8lociAH1xweEpYt7vL2g
H3nJRaZIr6diku7bcE2I3rBmMA0nuzQ3x/ZsiD/ZjFsN1rhjydDCGfEMwVybAomd
P4VwUqMftE8ClfzGRjphSFZ1DmDrK2tdf0BhyYzHsARI/2/ynPqYAhkp5hdm9SuH
CBnHxctqDytwPq+DD5Wq5c0kXdnIiH1+Vjdh8EtXNUUXgDU0aiXlIV+pAFR0VbVd
abjTylhBZQ0YqwxQP5Le09aVKDwse8+DftFTWjshmECw/Aoq+SI5TrGp6aiwnFxQ
NGMmLzQSh9KrQaK3o6CSSuwQHcE7poD7fpwtDbhf9xFII7X37J92skZyzClFotj8
An9eeO8HLEpB73+Tk7kQ9yc1QYfXJgEp1ksXT/RUmY+JHF8zr73mn8Km5XYdpCOp
sA/jCDCbm9OellsFJjqFfv/HjvXcXMy57CcOPup+pYoxuQ5RRYOiqH+0U1FV+/AC
OashuMkP/0w1PiAthW99RQWh1M4c7+n/xgsGfdQiku5jjS57ROZoCUJKwmCzbvI+
qOm1n0QOwKzbhEPEcK8d/SRW7npgxgZKDwNNYLtt5dC2zD0gW+8tQp30CdS4OeBz
pNzlzqPlJcQMKTPDPiGvML8pKsxzbhYh29fG/JHe386I8DVdp6UfW+uOyCWA89qI
vObQNL5j+fcmcWodM4fbyzgY1bysOkJ4MqbCEGWeqfk+vsXiobtmxglSdwUROw+K
a564hzH8/U5VhsROXhbXGXe8oKheUJWcll360TvjMWPXAzgpl2RkmPP7R5fEkhzQ
0pae6M8ntQUi/Y7x+NjGoF7rdALJXyWpIEWd330hLRmzA3Pilona+Cxx+eFtNx71
kH7fvhhgUxCyOGfGnUmuZQsmeVu0uBWiGyMakFk1bZJhAPqV3mBrqdZRZ09a9Wuz
+O60lW8wShO29HrIoQuVfo6n5uP6tU9P9gwyQIjWSiCjKrGlVFEDGyJeiqhJ8suZ
8T6Hb6K67QEPwcEUNQmzrjo6EKCY344fbYxvLMmdw5bEFGj23U713zycYP4fwH+M
+KFKZU5adM2HP3+V1FHEWPihXlQD8pCIR5+IF17JYj/j62ThcAmnSK3X2U08UHEC
liqiB2Eq/Nuw2Y+W3bFcEqdgPIC4usAqwXaeBTkUmMmyI+azi1QP
=x2J4
-----END PGP PUBLIC KEY BLOCK-----
